!!!OTL: Es hatt' ein Mann eine h&uuml;bsche Frau (3-29), S. 74
!!!id: K1163
**kern
*clefG2
*k[b-]
*F:
{8cc
=1
8a
8cc
8cc
16cc
16cc
8.dd
16cc
8cc}
=2
{8cc
=3
8.ff
16cc
8cc
8b-
8.b-
16a
4a}
=4
{8a
8g
4g
8b-
8dd
8.cc}
=5
{16f
=6
8f
8a
8cc
8e
2g
=7
2f}
4.r
==
*-
!!!minrhy: 16
!!!meters: 4/4 ]  ZZ[4
!!!cut: Es hatt' ein Mann eine h&uuml;bsche Frau (3-29), S. 74
!!!reg: Luxemburg
!!!trd: KINTZELE, Guillaume: An der Ucht, Bd. 3 Luxemburg 1928
!!!rhy1: X_  X_X_X_XXX_.XX_
!!!rhy2: X_  X_.XX_X_X_.XX__
!!!key: K1163  16  F 4/4 ]  ZZ[4
!!!mod: HEPTATONIK IONISCH]  AMBITUS[9b
!!!kad: 5351
!!!akz: 36_+14_4_121_
!!!fot: 'a__b__c__d__
!!!for: 'a__b__c__d__
!!!fok: 'V__^d_/__-__
!! PHRAS[AUFTAKTIG]
!!!fkt: Spottlied
!!!bem: in der Quelle mit einer 2. Stimme versehen
!! KINTZELE
!! PR[30] 2K[1] 2G[7] 3K[9] 3G[3] 4A[3] 4Ü[0] 5A[3] 6K[0] 6G[1]
!! 7K[0] 7G[0] 8A[1] MEHR[0] SI[29] ABS[70] SR[9] SP[20]
!! ST[27] 2k[6] 2g[17] 3k[9] 3g[4] 4d[3] 4ü[0] 5d[3] 6k[0] 6g[0]
!! 7k[0] 7g[0] 8d[0] mehr[0] si[41] dm[-12] sr[23] sp[19]
!! 1F[4] 2F[45] 3F[44] 4F[3] LF[0] 2P[4] 3P[0] 4P[0] TRI[0] DF[5] AB[71]
!! TF[0] U3K[0] U3[0] U4[0] U4Ü[0] U5[6] U6K[0] U6[0] U7K[0] U7[0]
!! N1[21] N2K[0] N2[14] N3K[0] N3[27] N4[10] N4Ü[0] N5[17] N6K[0] N6[6]
!!!n7k: 0] N7[0] O1[0] O2K[0] O2[0] O3K[0] O3[0] HÖ[0
!!!RNB: symbol: &uuml;  = u umlaut (UTF-8: Ã¼)
